X:1
T:Great is the Lord, and with great praise
T:John Smith
T:Text: John Hopkins, on Ps. 48
T:This edition by Edmund Gooch released into the public domain, June 2011.
T:Great is the Lord, and with great praise
T:Psalm ye 48th. 4 Voice.
C:John Smith
Z:Text: John Hopkins, on Ps. 48
%%score [ 1 2 3 4 ]
L:1/8
M:3/2
K:C
V:1 treble nm="Soprano" snm="S."
V:2 treble nm="Alto" snm="A."
V:3 treble-8 transpose=-12 nm="Tenor" snm="T."
V:4 bass nm="Bass" snm="B."
V:1
 A4 | (A4 B4) c4 | e8 c4 | d8 B4 | A8 e4 | (c4 d4) e4 | d8 d4 | e8 e4 | (e4 d4) c4 | e8 e4 | %10
w: With-|in _ the|pa- la-|ces there-|of God|is _ a|re- fuge|known; For|lo, _ the|kings are|
w: Great|is _ the|Lord, and|with great|praise To|be _ ad-|van- ced|still With-|in _ the|ci- ty|
w: Mount|Si- * on|is a|plea- sant|place, It|gladd- * ’neth|all the|land; The|ci- * ty|of the|
 (e4 d4) c4 | B8 c4 | (c4 B4) A4 | A4 ^G8 | A8 |] %15
w: ga- * ther’d,|and To-|ge- * ther|they are|gone:|
w: of _ our|God, Up-|on _ his|ho- ly|hill.|
w: migh- * ty|King On|her _ north|side doth|stand:|
V:2
 E4 | E8 A4 | ^G8 A4 | F8 E4 | E8 E4 | (E4 F4) E4 | G8 G4 | E8 E4 | (E4 F4) E4 | E8 E4 | E8 A4 | %11
w: With-|in the|pa- la-|ces there-|of God|is _ a|re- fuge|known; For|lo, _ the|kings are|ga- ther’d,|
w: Great|is the|Lord, and|with great|praise To|be _ ad-|van- ced|still With-|in _ the|ci- ty|of our|
w: Mount|Si- on|is a|plea- sant|place, It|gladd- * ’neth|all the|land; The|ci- * ty|of the|migh- ty|
 ^G8 E4 | (G4 F4) E4 | F4 E8 | E8 |] %15
w: and To-|ge- * ther|they are|gone:|
w: God, Up-|on _ his|ho- ly|hill.|
w: King On|her _ north|side doth|stand:|
V:3
 A4 | (c4 B4) A4 | B8 A4 | A8 ^G4 | A8 A4 | (c4 B4) c4 | d8 B4 | c8 B4 | A8 ^G4 | A8 c4 | %10
w: With-|in _ the|pa- la-|ces there-|of God|is _ a|re- fuge|known; For|lo, the|kings are|
w: Great|is _ the|Lord, and|with great|praise To|be _ ad-|van- ced|still With-|in the|ci- ty|
w: Mount|Si- * on|is a|plea- sant|place, It|gladd- * ’neth|all the|land; The|ci- ty|of the|
 (c4 B4) c4 | e8 e4 | (c4 d4) e4 | d4 B8 | A8 |] %15
w: ga- * ther’d,|and To-|ge- * ther|they are|gone:|
w: of _ our|God, Up-|on _ his|ho- ly|hill.|
w: migh- * ty|King On|her _ north|side doth|stand:|
V:4
 A,4 | (A,4 G,4) F,4 | E,8 A,,4 | D,8 E,4 | A,,8 C,4 | (E,4 D,4) C,4 | G,8 G,,4 | C,8 E,4 | %8
w: With-|in _ the|pa- la-|ces there-|of God|is _ a|re- fuge|known; For|
w: Great|is _ the|Lord, and|with great|praise To|be _ ad-|van- ced|still With-|
w: Mount|Si- * on|is a|plea- sant|place, It|gladd- * ’neth|all the|land; The|
"^Emendations: The alto part is printed in the source in the treble clef an octave above sounding pitch. The only indicationof the text given in the source is the title 'Psalm ye 48th': five verses of the present text have been added editorially." (C,4 D,4) E,4 | %9
w: lo, _ the|
w: in _ the|
w: ci- * ty|
 A,,8 A,4 | (A,4 ^G,4) A,4 | E,8 A,4 | (E,4 D,4) C,4 | D,4 E,8 | A,,8 |] %15
w: kings are|ga- * ther’d,|and To-|ge- * ther|they are|gone:|
w: ci- ty|of _ our|God, Up-|on _ his|ho- ly|hill.|
w: of the|migh- * ty|King On|her _ north|side doth|stand:|

